img/logo-blue-sp.svg

<svg width="153" height="36" viewBox="0 0 153 36" fill="none" xmlns="http://www.w3.org/2000/svg">
<path d="M26.1012 18.0693C26.1012 22.4857 22.5077 26.0833 18.0872 26.0833C13.6666 26.0833 10.0731 22.4898 10.0731 18.0693C10.0731 13.6487 13.6666 10.0552 18.0872 10.0552V0.130371C8.19897 0.130371 0.152344 8.177 0.152344 18.0652C0.152344 27.9534 8.19897 36 18.0872 36C27.9753 36 36.0219 27.9534 36.0219 18.0652H26.1012V18.0693Z" fill="#19BBF0"/>
<path d="M34.6895 0.00407328C24.8013 -0.179268 16.608 7.72069 16.4287 17.6089L26.3495 17.7922C26.431 13.4246 30.0082 9.92485 34.3595 9.92485C34.4083 9.92485 34.4572 9.92485 34.5102 9.92485C38.9267 10.0063 42.455 13.665 42.3735 18.0815C42.292 22.498 38.6333 26.0303 34.2168 25.9448L34.0335 35.8656C34.1435 35.8656 34.2576 35.8656 34.3676 35.8656C44.105 35.8656 52.115 28.0349 52.2942 18.2608C52.4776 8.37257 44.5776 0.179265 34.6894 0L34.6895 0.00407328Z" fill="#19BBF0"/>
<path d="M99.5794 24.9705C99.8271 24.3677 100.174 23.8475 100.62 23.4099C101.074 22.9723 101.606 22.6338 102.217 22.3943C102.837 22.1549 103.518 22.0352 104.261 22.0352C104.748 22.0352 105.256 22.1053 105.784 22.2457C106.313 22.3861 106.767 22.576 107.147 22.8154L106.949 23.8186C106.404 23.5462 105.912 23.3521 105.475 23.2365C105.045 23.1127 104.6 23.0507 104.137 23.0507C103.402 23.0507 102.75 23.2159 102.18 23.5462C101.619 23.8682 101.181 24.3182 100.867 24.8962C100.554 25.4659 100.397 26.1306 100.397 26.8902C100.397 27.6663 100.554 28.3393 100.867 28.909C101.181 29.4787 101.619 29.9204 102.18 30.2342C102.75 30.548 103.419 30.7048 104.187 30.7048C104.641 30.7048 105.12 30.6429 105.623 30.5191C106.127 30.3952 106.618 30.2218 107.097 29.9989L107.221 30.9897C106.247 31.4769 105.215 31.7204 104.125 31.7204C103.406 31.7204 102.746 31.6048 102.143 31.3737C101.549 31.1342 101.033 30.8039 100.595 30.3828C100.157 29.9535 99.8188 29.4498 99.5794 28.8718C99.3399 28.2856 99.2202 27.6457 99.2202 26.9521C99.2202 26.2338 99.3399 25.5732 99.5794 24.9705Z" fill="#19BBF0"/>
<path d="M95.5071 22.1714H96.6217V31.5842H95.5071V22.1714Z" fill="#19BBF0"/>
<path d="M84.438 22.1714H85.5155L91.2623 29.9617V22.1714H92.2903V31.5842H91.2127L85.466 23.7939V31.5842H84.438V22.1714Z" fill="#19BBF0"/>
<path d="M80.1057 22.1714H81.2204V31.5842H80.1057V22.1714Z" fill="#19BBF0"/>
<path d="M72.0239 22.1714H73.1386V30.6305H77.7583V31.5842H72.0239V22.1714Z" fill="#19BBF0"/>
<path d="M61.6619 24.9705C61.9096 24.3677 62.2564 23.8475 62.7023 23.4099C63.1564 22.9723 63.689 22.6338 64.3 22.3943C64.9192 22.1549 65.6004 22.0352 66.3435 22.0352C66.8307 22.0352 67.3385 22.1053 67.8669 22.2457C68.3954 22.3861 68.8495 22.576 69.2293 22.8154L69.0311 23.8186C68.4862 23.5462 67.9949 23.3521 67.5573 23.2365C67.1279 23.1127 66.6821 23.0507 66.2197 23.0507C65.4848 23.0507 64.8325 23.2159 64.2628 23.5462C63.7013 23.8682 63.2637 24.3182 62.95 24.8962C62.6362 25.4659 62.4793 26.1306 62.4793 26.8902C62.4793 27.6663 62.6362 28.3393 62.95 28.909C63.2637 29.4787 63.7013 29.9204 64.2628 30.2342C64.8325 30.548 65.5013 30.7048 66.2692 30.7048C66.7234 30.7048 67.2023 30.6429 67.7059 30.5191C68.2096 30.3952 68.7009 30.2218 69.1798 29.9989L69.3036 30.9897C68.3293 31.4769 67.2972 31.7204 66.2073 31.7204C65.489 31.7204 64.8284 31.6048 64.2257 31.3737C63.6312 31.1342 63.1151 30.8039 62.6775 30.3828C62.2399 29.9535 61.9014 29.4498 61.6619 28.8718C61.4225 28.2856 61.3027 27.6457 61.3027 26.9521C61.3027 26.2338 61.4225 25.5732 61.6619 24.9705Z" fill="#19BBF0"/>
<path d="M147.374 4.47803H148.6L152.427 13.8908H151.226L150.111 11.0422H145.801L144.687 13.8908H143.547L147.374 4.47803ZM149.74 10.1133L147.956 5.55555L146.173 10.1133H149.74Z" fill="#19BBF0"/>
<path d="M131.565 4.47803H132.68L136.296 11.228L139.863 4.47803H140.978L141.436 13.8908H140.359L140.012 6.15004L136.767 12.2931H135.776L132.519 6.24912L132.184 13.8908H131.107L131.565 4.47803Z" fill="#19BBF0"/>
<path d="M123.953 4.47803H125.179L129.006 13.8908H127.805L126.69 11.0422H122.38L121.266 13.8908H120.126L123.953 4.47803ZM126.319 10.1133L124.535 5.55555L122.752 10.1133H126.319Z" fill="#19BBF0"/>
<path d="M116.759 9.84085V13.8908H115.644V9.82846L112.102 4.47803H113.353L116.238 8.97388L119.137 4.47803H120.313L116.759 9.84085Z" fill="#19BBF0"/>
<path d="M102.134 4.47803H103.248V9.92755C103.248 10.9597 103.488 11.7441 103.967 12.2807C104.454 12.8092 105.164 13.0734 106.097 13.0734C107.03 13.0734 107.736 12.8092 108.215 12.2807C108.702 11.7441 108.945 10.9597 108.945 9.92755V4.47803H110.06V10.0266C110.06 11.3064 109.705 12.3055 108.995 13.0239C108.293 13.734 107.315 14.089 106.06 14.089C104.821 14.089 103.855 13.734 103.162 13.0239C102.476 12.3055 102.134 11.3064 102.134 10.0266V4.47803Z" fill="#19BBF0"/>
<path d="M98.8144 12.8132C98.542 13.2178 98.158 13.5316 97.6626 13.7545C97.1672 13.9775 96.5768 14.0889 95.8915 14.0889C95.5365 14.0889 95.1732 14.0559 94.8016 13.9898C94.4301 13.9238 94.075 13.8371 93.7365 13.7297C93.4062 13.6141 93.1255 13.482 92.8943 13.3334L93.0305 12.3054C93.4269 12.5449 93.881 12.7389 94.3929 12.8875C94.9048 13.0362 95.3879 13.1105 95.842 13.1105C96.5356 13.1105 97.0846 12.9619 97.4892 12.6646C97.8938 12.3674 98.0961 11.9628 98.0961 11.4509C98.0961 11.1536 98.03 10.9018 97.8979 10.6954C97.7741 10.4889 97.5512 10.299 97.2291 10.1256C96.9071 9.95224 96.4571 9.77059 95.8791 9.58068C95.1773 9.34949 94.62 9.11004 94.2071 8.86234C93.7943 8.61463 93.5012 8.32977 93.3278 8.00775C93.1544 7.68573 93.0677 7.29766 93.0677 6.84354C93.0677 6.32335 93.1957 5.87336 93.4516 5.49354C93.7158 5.10547 94.0791 4.80822 94.5415 4.6018C95.0039 4.38712 95.5447 4.27979 96.164 4.27979C96.6181 4.27979 97.0805 4.34171 97.5511 4.46556C98.0218 4.58116 98.4429 4.7463 98.8144 4.96097L98.6287 5.93941C98.2654 5.72473 97.8649 5.5596 97.4273 5.444C96.9897 5.32015 96.5686 5.25822 96.164 5.25822C95.5365 5.25822 95.0452 5.39446 94.6902 5.66694C94.3351 5.93115 94.1576 6.29858 94.1576 6.76922C94.1576 7.04996 94.2154 7.28941 94.331 7.48757C94.4466 7.67748 94.6489 7.855 94.9379 8.02014C95.2351 8.17702 95.6438 8.34628 96.164 8.52793C96.9236 8.78389 97.5264 9.04399 97.9722 9.3082C98.4181 9.57242 98.736 9.86967 98.9259 10.1999C99.1241 10.5302 99.2232 10.9183 99.2232 11.3642C99.2232 11.9174 99.0869 12.4004 98.8144 12.8132Z" fill="#19BBF0"/>
<path d="M86.5229 5.43169H83.3027V4.47803H90.8577V5.43169H87.6376V13.8908H86.5229V5.43169Z" fill="#19BBF0"/>
<path d="M78.0651 4.47803H79.2912L83.1183 13.8908H81.9169L80.8022 11.0422H76.4922L75.3775 13.8908H74.238L78.0651 4.47803ZM80.4307 10.1133L78.6472 5.55555L76.8637 10.1133H80.4307Z" fill="#19BBF0"/>
<path d="M62.2564 4.47803H63.371L66.9875 11.228L70.5545 4.47803H71.6692L72.1274 13.8908H71.0499L70.7031 6.15004L67.4582 12.2931H66.4673L63.21 6.24912L62.8756 13.8908H61.7981L62.2564 4.47803Z" fill="#19BBF0"/>
</svg>

<svg xmlns="http://www.w3.org/2000/svg" width="153" height="36" fill="none"><path fill="#19BBF0" d="M26.101 18.07c0 4.416-3.593 8.013-8.014 8.013s-8.014-3.593-8.014-8.014 3.594-8.014 8.014-8.014V.13C8.2.13.152 8.177.152 18.065S8.2 36 18.087 36s17.935-8.047 17.935-17.935h-9.92z"/><path fill="#19BBF0" d="M34.69.004C24.8-.179 16.608 7.721 16.429 17.61l9.92.183c.082-4.367 3.66-7.867 8.01-7.867h.151c4.417.081 7.945 3.74 7.864 8.156s-3.74 7.95-8.157 7.864l-.184 9.92h.335c9.737 0 17.747-7.83 17.926-17.604C52.478 8.373 44.578.179 34.69 0zM99.58 24.97a4.6 4.6 0 0 1 1.04-1.56 4.8 4.8 0 0 1 1.597-1.016q.93-.36 2.044-.359.73 0 1.523.21.793.212 1.363.57l-.198 1.004a8 8 0 0 0-1.474-.582 4.8 4.8 0 0 0-1.338-.186q-1.102 0-1.957.495a3.4 3.4 0 0 0-1.313 1.35q-.47.855-.47 1.994 0 1.165.47 2.019a3.33 3.33 0 0 0 1.313 1.325q.855.47 2.007.47.681 0 1.436-.185a8 8 0 0 0 1.474-.52l.124.99a6.8 6.8 0 0 1-3.096.731 5.5 5.5 0 0 1-1.982-.346 4.8 4.8 0 0 1-1.548-.991 4.5 4.5 0 0 1-1.016-1.511 5 5 0 0 1-.359-1.92q0-1.077.36-1.982M95.507 22.171h1.115v9.413h-1.115zM84.438 22.171h1.078l5.746 7.79v-7.79h1.028v9.413h-1.077l-5.747-7.79v7.79h-1.028zM80.106 22.171h1.114v9.413h-1.114zM72.024 22.171h1.115v8.46h4.62v.953h-5.735zM61.662 24.97a4.6 4.6 0 0 1 1.04-1.56 4.8 4.8 0 0 1 1.598-1.016q.929-.36 2.044-.359.73 0 1.523.21.793.212 1.362.57l-.198 1.004a8 8 0 0 0-1.474-.582 4.8 4.8 0 0 0-1.337-.186q-1.103 0-1.957.495-.843.483-1.313 1.35-.47.855-.47 1.994 0 1.165.47 2.019t1.313 1.325q.855.47 2.006.47.681 0 1.437-.185A8 8 0 0 0 69.18 30l.124.99a6.8 6.8 0 0 1-3.097.731 5.5 5.5 0 0 1-1.981-.346 4.8 4.8 0 0 1-1.548-.991 4.5 4.5 0 0 1-1.016-1.511 5 5 0 0 1-.36-1.92q0-1.077.36-1.982M147.374 4.478h1.226l3.827 9.413h-1.201l-1.115-2.849h-4.31l-1.114 2.849h-1.14zm2.366 5.635-1.784-4.557-1.783 4.557zM131.565 4.478h1.115l3.616 6.75 3.567-6.75h1.115l.458 9.413h-1.077l-.347-7.741-3.245 6.143h-.991l-3.257-6.044-.335 7.642h-1.077zM123.953 4.478h1.226l3.827 9.413h-1.201l-1.115-2.849h-4.31l-1.114 2.849h-1.14zm2.366 5.635-1.784-4.557-1.783 4.557zM116.759 9.84v4.05h-1.115V9.829l-3.542-5.35h1.251l2.885 4.496 2.899-4.496h1.176zM102.134 4.478h1.114v5.45q0 1.548.719 2.353.73.792 2.13.792t2.118-.792q.73-.805.73-2.353v-5.45h1.115v5.549q0 1.92-1.065 2.997-1.053 1.065-2.935 1.065-1.859 0-2.898-1.065-1.029-1.078-1.028-2.997zM98.814 12.813q-.408.608-1.151.941-.743.335-1.772.335-.532 0-1.09-.1a8 8 0 0 1-1.064-.26 4 4 0 0 1-.843-.396l.136-1.028q.595.36 1.363.582.768.224 1.449.223 1.041 0 1.647-.445.607-.447.607-1.214 0-.446-.198-.756-.186-.309-.669-.57t-1.35-.544q-1.053-.348-1.672-.719-.62-.37-.88-.854-.26-.483-.26-1.164 0-.78.385-1.35a2.53 2.53 0 0 1 1.09-.892q.693-.322 1.622-.322.68 0 1.387.186.706.172 1.263.495l-.185.978a4.7 4.7 0 0 0-1.202-.495 4.6 4.6 0 0 0-1.263-.186q-.941 0-1.474.409-.532.396-.532 1.102 0 .421.173.719.174.285.607.532.446.235 1.226.508 1.14.384 1.808.78t.954.892q.297.495.297 1.164 0 .83-.409 1.45M86.523 5.432h-3.22v-.954h7.555v.954h-3.22v8.459h-1.115zM78.065 4.478h1.226l3.827 9.413h-1.201l-1.115-2.849h-4.31l-1.115 2.849h-1.139zm2.366 5.635-1.784-4.557-1.783 4.557zM62.256 4.478h1.115l3.616 6.75 3.568-6.75h1.114l.458 9.413H71.05l-.347-7.741-3.245 6.143h-.99L63.21 6.25l-.334 7.642h-1.078z"/></svg>
